COLOR/categories 16/16/preferences-color.svg

<svg height="16.079491" width="16.01465" xmlns="http://www.w3.org/2000/svg"><g enable-background="new" transform="matrix(.25306845 0 0 .25306845 6.65066 -65.08277)"><path d="m30.997667 274.28256a29.636253 29.636253 0 0 1 0 29.63624l-25.6657512-14.81811z" fill="#5884f4"/><path d="m30.997667 303.9188a29.636253 29.636253 0 0 1 -25.6657512 14.81813v-29.63624z" fill="#9b33ae"/><path d="m5.3319158 259.46442a29.636253 29.636253 0 0 1 25.6657512 14.81814l-25.6657512 14.81813z" fill="#76c22b"/><path d="m-20.333832 274.28256a29.636253 29.636253 0 0 1 25.6657478-14.81814v29.63627z" fill="#fdc92b"/><path d="m-20.333832 303.9188a29.636253 29.636253 0 0 1 0-29.63624l25.6657478 14.81813z" fill="#fb7c38"/><path d="m5.3319158 318.73693a29.636253 29.636253 0 0 1 -25.6657478-14.81813l25.6657478-14.81811z" fill="#f76363"/><path d="m8 .58007812a7.5000006 7.5000006 0 0 0 -6.4960938 3.74999998 7.5000006 7.5000006 0 0 0 -.99218745 3.9414063 7.5000006 7.5000006 0 0 1 .99218745-3.4414063 7.5000006 7.5000006 0 0 1 6.4960938-3.75 7.5000006 7.5000006 0 0 1 6.496094 3.75 7.5000006 7.5000006 0 0 1 .992187 3.5585938 7.5000006 7.5000006 0 0 0 -.992187-4.0585938 7.5000006 7.5000006 0 0 0 -6.496094-3.74999998z" fill="#f0f0f0" opacity=".3" stroke-width=".253068" transform="matrix(3.9515001 0 0 3.9515001 -26.280084 257.17457)"/><path d="m5.3472588 318.73693a29.636253 29.636253 0 0 0 25.6693102-14.81813 29.636253 29.636253 0 0 0 3.92063-15.57447 29.636253 29.636253 0 0 1 -3.92063 13.59872 29.636253 29.636253 0 0 1 -25.6693102 14.81813 29.636253 29.636253 0 0 1 -25.6693198-14.81813 29.636253 29.636253 0 0 1 -3.92062-14.06178 29.636253 29.636253 0 0 0 3.92062 16.03753 29.636253 29.636253 0 0 0 25.6693198 14.81813z" fill="#040000" opacity=".2"/></g></svg>

<?xml version="1.0" encoding="UTF-8" standalone="no"?>
<svg
   xmlns:osb="http://www.openswatchbook.org/uri/2009/osb"
   xmlns:dc="http://purl.org/dc/elements/1.1/"
   xmlns:cc="http://creativecommons.org/ns#"
   xmlns:rdf="http://www.w3.org/1999/02/22-rdf-syntax-ns#"
   xmlns:svg="http://www.w3.org/2000/svg"
   xmlns="http://www.w3.org/2000/svg"
   xmlns:xlink="http://www.w3.org/1999/xlink"
   xmlns:sodipodi="http://sodipodi.sourceforge.net/DTD/sodipodi-0.dtd"
   xmlns:inkscape="http://www.inkscape.org/namespaces/inkscape"
   height="16.079491"
   id="svg7384"
   version="1.1"
   width="16.01465"
   sodipodi:docname="gpick.svg"
   inkscape:version="0.92.4 (5da689c313, 2019-01-14)">
  <sodipodi:namedview
     pagecolor="#ffffff"
     bordercolor="#666666"
     borderopacity="1"
     objecttolerance="10"
     gridtolerance="10"
     guidetolerance="10"
     inkscape:pageopacity="0"
     inkscape:pageshadow="2"
     inkscape:window-width="1920"
     inkscape:window-height="1016"
     id="namedview23"
     showgrid="false"
     inkscape:zoom="64.538452"
     inkscape:cx="7.7997681"
     inkscape:cy="9.1192425"
     inkscape:window-x="0"
     inkscape:window-y="27"
     inkscape:window-maximized="1"
     inkscape:current-layer="layer1-0" />
  <metadata
     id="metadata20854">
    <rdf:RDF>
      <cc:Work
         rdf:about="">
        <dc:title />
        <dc:format>image/svg+xml</dc:format>
        <dc:type
           rdf:resource="http://purl.org/dc/dcmitype/StillImage" />
      </cc:Work>
    </rdf:RDF>
  </metadata>
  <defs
     id="defs7386">
    <linearGradient
       id="linearGradient5606"
       osb:paint="solid">
      <stop
         id="stop5608"
         offset="0"
         style="stop-color:#000000;stop-opacity:1;" />
    </linearGradient>
    <linearGradient
       id="linearGradient4526"
       osb:paint="solid">
      <stop
         id="stop4528"
         offset="0"
         style="stop-color:#ffffff;stop-opacity:1;" />
    </linearGradient>
    <linearGradient
       id="linearGradient3600-4"
       osb:paint="gradient">
      <stop
         id="stop3602-7"
         offset="0"
         style="stop-color:#f4f4f4;stop-opacity:1" />
      <stop
         id="stop3604-6"
         offset="1"
         style="stop-color:#dbdbdb;stop-opacity:1" />
    </linearGradient>
    <linearGradient
       id="linearGradient4614-5"
       x1="21.783001"
       x2="107.217"
       y1="60.229"
       y2="60.229"
       gradientTransform="matrix(1.1119665,0,0,1.1119665,-11.941874,-15.557361)"
       gradientUnits="userSpaceOnUse"
       xlink:href="#linearGradient4620" />
    <linearGradient
       id="linearGradient4620">
      <stop
         style="stop-color:#2be8c9"
         id="stop21"
         offset="0" />
      <stop
         style="stop-color:#ffffff"
         id="stop23"
         offset="1" />
    </linearGradient>
    <linearGradient
       id="linearGradient939"
       x1="150"
       x2="195"
       y1="106"
       y2="171"
       gradientTransform="matrix(1.0000492,0,0,1.0000492,-4.4322299,2.0370564)"
       gradientUnits="userSpaceOnUse"
       xlink:href="#linearGradient4620" />
  </defs>
  <g
     style="enable-background:new"
     id="layer1-0"
     transform="matrix(0.25306845,0,0,0.25306845,6.65066,-65.08277)">
    <path
       style="fill:#5884f4"
       d="m 30.997667,274.28256 a 29.636253,29.636253 0 0 1 0,29.63624 L 5.3319158,289.10069 Z"
       id="path31"
       inkscape:connector-curvature="0" />
    <path
       style="fill:#9b33ae"
       d="M 30.997667,303.9188 A 29.636253,29.636253 0 0 1 5.3319158,318.73693 v -29.63624 z"
       id="path33"
       inkscape:connector-curvature="0" />
    <path
       style="fill:#76c22b"
       d="M 5.3319158,259.46442 A 29.636253,29.636253 0 0 1 30.997667,274.28256 L 5.3319158,289.10069 Z"
       id="path35"
       inkscape:connector-curvature="0" />
    <path
       style="fill:#fdc92b"
       d="M -20.333832,274.28256 A 29.636253,29.636253 0 0 1 5.3319158,259.46442 v 29.63627 z"
       id="path37"
       inkscape:connector-curvature="0" />
    <path
       style="fill:#fb7c38"
       d="m -20.333832,303.9188 a 29.636253,29.636253 0 0 1 0,-29.63624 l 25.6657478,14.81813 z"
       id="path39"
       inkscape:connector-curvature="0" />
    <path
       style="fill:#f76363"
       d="M 5.3319158,318.73693 A 29.636253,29.636253 0 0 1 -20.333832,303.9188 L 5.3319158,289.10069 Z"
       id="path41"
       inkscape:connector-curvature="0" />
    <path
       style="fill:#f0f0f0;stroke-width:0.25306845;fill-opacity:1;opacity:0.3"
       d="M 8 0.58007812 A 7.5000006 7.5000006 0 0 0 1.5039062 4.3300781 A 7.5000006 7.5000006 0 0 0 0.51171875 8.2714844 A 7.5000006 7.5000006 0 0 1 1.5039062 4.8300781 A 7.5000006 7.5000006 0 0 1 8 1.0800781 A 7.5000006 7.5000006 0 0 1 14.496094 4.8300781 A 7.5000006 7.5000006 0 0 1 15.488281 8.3886719 A 7.5000006 7.5000006 0 0 0 14.496094 4.3300781 A 7.5000006 7.5000006 0 0 0 8 0.58007812 z "
       transform="matrix(3.9515001,0,0,3.9515001,-26.280084,257.17457)"
       id="path847" />
    <path
       id="path859"
       d="m 5.3472588,318.73693 a 29.636253,29.636253 0 0 0 25.6693102,-14.81813 29.636253,29.636253 0 0 0 3.92063,-15.57447 29.636253,29.636253 0 0 1 -3.92063,13.59872 29.636253,29.636253 0 0 1 -25.6693102,14.81813 29.636253,29.636253 0 0 1 -25.6693198,-14.81813 29.636253,29.636253 0 0 1 -3.92062,-14.06178 29.636253,29.636253 0 0 0 3.92062,16.03753 29.636253,29.636253 0 0 0 25.6693198,14.81813 z"
       style="opacity:0.2;fill:#040000;fill-opacity:1;stroke-width:1"
       inkscape:connector-curvature="0" />
  </g>
  <g
     id="layer9"
     label="status"
     style="display:inline"
     transform="matrix(1.1538461,0,0,1.1538461,-1008.3077,53.655785)" />
  <g
     id="layer2"
     style="display:inline"
     transform="matrix(1.1538461,0,0,1.1538461,-730.2305,-369.80575)" />
  <g
     id="layer4"
     style="display:inline"
     transform="matrix(1.1538461,0,0,1.1538461,-730.2305,-369.80575)" />
  <g
     id="g1812"
     style="display:inline"
     transform="matrix(1.1538461,0,0,1.1538461,-730.2305,-369.80575)" />
  <g
     id="g6217"
     style="display:inline"
     transform="matrix(1.1538461,0,0,1.1538461,-730.2305,-369.80575)" />
  <g
     id="layer3"
     style="display:inline"
     transform="matrix(1.1538461,0,0,1.1538461,-730.2305,-369.80575)" />
  <g
     id="layer1"
     style="display:inline"
     transform="matrix(1.1538461,0,0,1.1538461,-730.2305,-369.80575)" />
</svg>
